assets/icons/screen/lock-filled.svg

<?xml version="1.0" encoding="UTF-8" standalone="no"?>
<svg
   viewBox="0 0 24 24"
   height="24"
   id="svg7384"
   version="1.1"
   width="24"
   sodipodi:docname="lock-filled.svg"
   inkscape:version="1.2 (1:1.2.1+202207142221+cd75a1ee6d)"
   xmlns:inkscape="http://www.inkscape.org/namespaces/inkscape"
   xmlns:sodipodi="http://sodipodi.sourceforge.net/DTD/sodipodi-0.dtd"
   xmlns="http://www.w3.org/2000/svg"
   xmlns:svg="http://www.w3.org/2000/svg"
   xmlns:rdf="http://www.w3.org/1999/02/22-rdf-syntax-ns#"
   xmlns:cc="http://creativecommons.org/ns#"
   xmlns:dc="http://purl.org/dc/elements/1.1/">
  <sodipodi:namedview
     id="namedview24"
     pagecolor="#ffffff"
     bordercolor="#666666"
     borderopacity="1.0"
     inkscape:pageshadow="2"
     inkscape:pageopacity="0.0"
     inkscape:pagecheckerboard="0"
     showgrid="true"
     inkscape:zoom="22.627417"
     inkscape:cx="20.638679"
     inkscape:cy="9.9878833"
     inkscape:window-width="1920"
     inkscape:window-height="1043"
     inkscape:window-x="0"
     inkscape:window-y="0"
     inkscape:window-maximized="1"
     inkscape:current-layer="svg7384"
     inkscape:snap-page="true"
     inkscape:snap-bbox="true"
     inkscape:bbox-paths="true"
     inkscape:bbox-nodes="true"
     inkscape:snap-bbox-midpoints="true"
     inkscape:snap-bbox-edge-midpoints="true"
     inkscape:object-paths="true"
     inkscape:snap-intersection-paths="true"
     inkscape:snap-smooth-nodes="true"
     inkscape:snap-midpoints="true"
     inkscape:snap-grids="true"
     inkscape:showpageshadow="2"
     inkscape:deskcolor="#d1d1d1">
    <inkscape:grid
       type="xygrid"
       id="grid829" />
    <inkscape:grid
       type="xygrid"
       id="grid886"
       dotted="true"
       spacingx="0.5"
       spacingy="0.5"
       empspacing="10" />
  </sodipodi:namedview>
  <metadata
     id="metadata20854">
    <rdf:RDF>
      <cc:Work
         rdf:about="">
        <dc:format>image/svg+xml</dc:format>
        <dc:type
           rdf:resource="http://purl.org/dc/dcmitype/StillImage" />
      </cc:Work>
    </rdf:RDF>
  </metadata>
  <defs
     id="defs7386">
    <linearGradient
       id="linearGradient5606"
       inkscape:swatch="solid">
      <stop
         id="stop5608"
         offset="0"
         style="stop-color:#000000;stop-opacity:1;" />
    </linearGradient>
    <linearGradient
       id="linearGradient4526"
       inkscape:swatch="solid">
      <stop
         id="stop4528"
         offset="0"
         style="stop-color:#ffffff;stop-opacity:1;" />
    </linearGradient>
    <linearGradient
       id="linearGradient3600-4"
       inkscape:swatch="gradient">
      <stop
         id="stop3602-7"
         offset="0"
         style="stop-color:#f4f4f4;stop-opacity:1" />
      <stop
         id="stop3604-6"
         offset="1"
         style="stop-color:#dbdbdb;stop-opacity:1" />
    </linearGradient>
  </defs>
  <path
     id="path303"
     style="color:#000000;fill:#808080;fill-opacity:1"
     d="m 5.4550781,3 c -0.9685749,0.00898 -1.7178226,0.073271 -2.3378906,0.4453125 -0.4133787,0.2480275 -0.7199385,0.6559105 -0.8886719,1.1621094 -0.1687327,0.5061989 -0.2285156,1.1148059 -0.2285156,1.8925781 v 8 c 0,0.777771 0.059783,1.386382 0.2285156,1.892578 0.1687334,0.506202 0.4752932,0.914081 0.8886719,1.16211 0.8267574,0.496052 1.882823,0.445312 3.3828125,0.445312 h 2.5 6 2.5 c 1.499992,0 2.556056,0.05074 3.382812,-0.445312 0.413382,-0.248029 0.719944,-0.655908 0.888672,-1.16211 0.168734,-0.506196 0.228516,-1.114807 0.228516,-1.892578 v -8 c 0,-0.7777722 -0.05978,-1.3863792 -0.228516,-1.8925781 -0.168728,-0.5061989 -0.47529,-0.9140819 -0.888672,-1.1621094 -0.826755,-0.4960543 -1.88282,-0.4453125 -3.382812,-0.4453125 h -11 c -0.3749972,0 -0.7220634,-0.00299 -1.0449219,0 z m -1.1054687,1 h 15.3007816 c 0.747896,0 1.349609,0.5805848 1.349609,1.3007812 v 10.3984378 c 0,0.720196 -0.601713,1.300781 -1.349609,1.300781 h -15.3007816 c -0.7478963,0 -1.3496094,-0.580585 -1.3496094,-1.300781 v -10.3984378 c 0,-0.7201964 0.6017131,-1.3007812 1.3496094,-1.3007812 z m 0.8496094,1 c -0.6647984,0 -1.1992188,0.490213 -1.1992188,1.0996094 v 8.8007816 c 0,0.609396 0.5344204,1.099609 1.1992188,1.099609 h 13.6015622 c 0.664799,0 1.199219,-0.490213 1.199219,-1.099609 v -8.8007816 c 0,-0.6093964 -0.53442,-1.0996094 -1.199219,-1.0996094 z m 6.8007812,1 c 1.656852,0 3,1.3431475 3,3 h 1 v 6 h -8 v -6 h 1 c 0,-1.6568525 1.343148,-3 3,-3 z m 0,1 c -1.104568,0 -2,0.8954316 -2,2 h 4 c 0,-1.1045684 -0.895432,-2 -2,-2 z m -3,3 v 4 h 6 v -4 z m 2,1 h 2 v 2 h -2 z m -2,8 v 0.125 c 0,1.874988 -0.6250073,1.875 -1.875,1.875 h -1.125 v 1 h 12 v -1 h -1.125 c -1.249993,0 -1.875,-1.2e-5 -1.875,-1.875 v -0.125 z"
     sodipodi:nodetypes="cssssscsccsscsscssscsssssssssssssssssssccccccssccscccccccccccssccccsscc" />
  <g
     transform="matrix(0.68750195,0,0,0.68750195,-15.500083,-215.00062)"
     fill="#808080"
     shape-rendering="auto"
     id="g1774"
     style="stroke-width:1.45454" />
</svg>

<svg height="24" width="24" xmlns="http://www.w3.org/2000/svg"><path style="color:#000;fill:gray;fill-opacity:1" d="M5.455 3c-.968.009-1.718.073-2.338.445-.413.248-.72.656-.888 1.162C2.059 5.114 2 5.722 2 6.5v8c0 .778.06 1.386.229 1.893.168.506.475.914.888 1.162C3.944 18.05 5 18 6.5 18h11c1.5 0 2.556.05 3.383-.445.413-.248.72-.656.888-1.162.17-.507.229-1.115.229-1.893v-8c0-.778-.06-1.386-.229-1.893-.168-.506-.475-.914-.888-1.162C20.056 2.95 19 3 17.5 3h-11c-.375 0-.722-.003-1.045 0zM4.35 4h15.3c.748 0 1.35.58 1.35 1.3v10.4c0 .72-.602 1.3-1.35 1.3H4.35C3.602 17 3 16.42 3 15.7V5.3C3 4.58 3.602 4 4.35 4zm.85 1C4.533 5 4 5.49 4 6.1v8.8c0 .61.534 1.1 1.2 1.1h13.6c.666 0 1.2-.49 1.2-1.1V6.1c0-.61-.534-1.1-1.2-1.1zM12 6a3 3 0 0 1 3 3h1v6H8V9h1a3 3 0 0 1 3-3zm0 1a2 2 0 0 0-2 2h4a2 2 0 0 0-2-2zm-3 3v4h6v-4zm2 1h2v2h-2zm-2 8v.125C9 21 8.375 21 7.125 21H6v1h12v-1h-1.125C15.625 21 15 21 15 19.125V19z"/></svg>
